src/apps/scalable/abiword.svg

<?xml version="1.0" encoding="UTF-8" standalone="no"?>
<svg
   width="64"
   height="64"
   version="1.1"
   viewBox="0 0 16.933 16.933"
   id="svg30"
   xml:space="preserve"
   xmlns="http://www.w3.org/2000/svg"
   xmlns:svg="http://www.w3.org/2000/svg"><defs
     id="defs18"><linearGradient
       id="a"
       x1="11.855934"
       x2="4.3140578"
       y1="16.792252"
       y2="1.6515646"
       gradientTransform="matrix(1.0178,0,0,1.0178,-0.15085019,-0.14268)"
       gradientUnits="userSpaceOnUse"><stop
         stop-color="#2e3440"
         offset="0"
         id="stop2"
         style="stop-color:#5e81ac;stop-opacity:1;" /><stop
         stop-color="#4c566a"
         offset="1"
         id="stop4"
         style="stop-color:#88c0d0;stop-opacity:1;" /></linearGradient><filter
       id="filter1078"
       x="-0.02631447"
       y="-0.027723006"
       width="1.0526289"
       height="1.055446"
       color-interpolation-filters="sRGB"><feGaussianBlur
         stdDeviation="0.45999875"
         id="feGaussianBlur7" /></filter><linearGradient
       id="linearGradient467"
       x1="8.8655"
       x2="8.8655"
       y1="3.3171"
       y2="13.735"
       gradientUnits="userSpaceOnUse"><stop
         stop-color="#eceff4"
         offset="0"
         id="stop10" /><stop
         stop-color="#d8dee9"
         offset="1"
         id="stop12" /></linearGradient><filter
       id="filter1178"
       x="-0.047999482"
       y="-0.047999482"
       width="1.095999"
       height="1.095999"
       color-interpolation-filters="sRGB"><feGaussianBlur
         stdDeviation="0.30691668"
         id="feGaussianBlur15" /></filter><filter
       style="color-interpolation-filters:sRGB"
       id="filter926"
       x="-0.026848653"
       y="-0.027153064"
       width="1.0536973"
       height="1.0543061"><feGaussianBlur
         stdDeviation="0.11518128"
         id="feGaussianBlur928" /></filter></defs><g
     transform="translate(-.00025546 -.11386)"
     id="g22"><rect
       transform="matrix(.99138 0 0 1 .072989 .0019055)"
       x=".79375"
       y=".90545"
       width="15.346"
       height="15.346"
       rx="3.0526"
       ry="3.0526"
       fill="#000000"
       filter="url(#filter1178)"
       opacity=".15"
       stroke-linecap="round"
       stroke-linejoin="round"
       stroke-width="1.2489"
       style="mix-blend-mode:normal"
       id="rect20" /></g><rect
     x="0.92599982"
     y="0.92602003"
     width="15.081"
     height="15.081"
     rx="3.0536001"
     ry="3.0534999"
     fill="url(#a)"
     stroke-width="1.0178"
     id="rect24"
     style="fill:url(#a)" /><path
     style="fill:#2e3440;stroke-width:0.023583;fill-opacity:1;filter:url(#filter926);opacity:0.5"
     d="M 4.1870054,13.538916 C 3.6848106,13.490382 3.4062928,13.292091 3.3355978,12.932757 3.2263121,12.377268 3.6496605,10.785223 4.3341055,9.1777666 5.4872976,6.4694288 7.0400875,4.1119382 8.0610597,3.5193954 8.3006879,3.380322 8.5964155,3.3389484 8.834501,3.4111875 c 0.5132987,0.1557435 1.1586395,0.7754189 1.841461,1.7682258 1.550181,2.2539289 2.814143,5.5805967 2.931356,7.7151427 0.01353,0.246458 0.0114,0.264864 -0.03621,0.312474 -0.05782,0.05782 -0.09584,0.06313 -0.151073,0.02112 -0.02131,-0.01621 -0.202293,-0.337236 -0.402179,-0.713385 C 11.790153,10.204452 10.61717,8.1913308 9.8230593,7.031716 9.3308976,6.313028 8.881524,5.787842 8.6719244,5.6863764 L 8.56889,5.6364984 8.4446813,5.6937624 C 8.0063974,5.8958242 7.2315041,6.9654037 6.4333257,8.4700228 5.797524,9.6685492 5.295339,10.939321 5.3182081,11.291812 c 0.0066,0.100923 0.013869,0.113333 0.077975,0.132116 0.089353,0.02618 0.4940453,0.0057 0.8018214,-0.04065 0.9455236,-0.142277 2.7274966,-0.604167 4.7003215,-1.218332 0.43277,-0.134727 0.458244,-0.139895 0.51293,-0.104064 0.08413,0.05513 0.07516,0.144136 -0.02396,0.237617 -0.184803,0.174293 -1.084402,0.747326 -1.8876783,1.202429 -1.7363306,0.983732 -3.2715762,1.646108 -4.5675685,1.97066 -0.3822023,0.09571 -0.4179095,0.09894 -0.7450473,0.06732 z"
     id="path924" /><path
     style="fill:#eceff4;stroke-width:0.023583;fill-opacity:1"
     d="M 4.1870054,13.538916 C 3.6848106,13.490382 3.4062928,13.292091 3.3355978,12.932757 3.2263121,12.377268 3.6496605,10.785223 4.3341055,9.1777666 5.4872976,6.4694288 7.0400875,4.1119382 8.0610597,3.5193954 8.3006879,3.380322 8.5964155,3.3389484 8.834501,3.4111875 c 0.5132987,0.1557435 1.1586395,0.7754189 1.841461,1.7682258 1.550181,2.2539289 2.814143,5.5805967 2.931356,7.7151427 0.01353,0.246458 0.0114,0.264864 -0.03621,0.312474 -0.05782,0.05782 -0.09584,0.06313 -0.151073,0.02112 -0.02131,-0.01621 -0.202293,-0.337236 -0.402179,-0.713385 C 11.790153,10.204452 10.61717,8.1913308 9.8230593,7.031716 9.3308976,6.313028 8.881524,5.787842 8.6719244,5.6863764 L 8.56889,5.6364984 8.4446813,5.6937624 C 8.0063974,5.8958242 7.2315041,6.9654037 6.4333257,8.4700228 5.797524,9.6685492 5.295339,10.939321 5.3182081,11.291812 c 0.0066,0.100923 0.013869,0.113333 0.077975,0.132116 0.089353,0.02618 0.4940453,0.0057 0.8018214,-0.04065 0.9455236,-0.142277 2.7274966,-0.604167 4.7003215,-1.218332 0.43277,-0.134727 0.458244,-0.139895 0.51293,-0.104064 0.08413,0.05513 0.07516,0.144136 -0.02396,0.237617 -0.184803,0.174293 -1.084402,0.747326 -1.8876783,1.202429 -1.7363306,0.983732 -3.2715762,1.646108 -4.5675685,1.97066 -0.3822023,0.09571 -0.4179095,0.09894 -0.7450473,0.06732 z"
     id="path223" /></svg>

<?xml version="1.0" encoding="UTF-8"?>
<svg width="64" height="64" version="1.1" viewBox="0 0 16.933 16.933" xml:space="preserve" xmlns="http://www.w3.org/2000/svg"><defs><linearGradient id="a" x1="11.856" x2="4.3141" y1="16.792" y2="1.6516" gradientTransform="matrix(1.0178 0 0 1.0178 -.15085 -.14268)" gradientUnits="userSpaceOnUse"><stop stop-color="#5e81ac" offset="0"/><stop stop-color="#88c0d0" offset="1"/></linearGradient><filter id="filter1178" x="-.047999" y="-.047999" width="1.096" height="1.096" color-interpolation-filters="sRGB"><feGaussianBlur stdDeviation="0.30691668"/></filter><filter id="filter926" x="-.026849" y="-.027153" width="1.0537" height="1.0543" color-interpolation-filters="sRGB"><feGaussianBlur stdDeviation="0.11518128"/></filter></defs><g transform="translate(-.00025546 -.11386)"><rect transform="matrix(.99138 0 0 1 .072989 .0019055)" x=".79375" y=".90545" width="15.346" height="15.346" rx="3.0526" ry="3.0526" filter="url(#filter1178)" opacity=".15" stroke-linecap="round" stroke-linejoin="round" stroke-width="1.2489" style="mix-blend-mode:normal"/></g><rect x=".926" y=".92602" width="15.081" height="15.081" rx="3.0536" ry="3.0535" fill="url(#a)" stroke-width="1.0178"/><path d="m4.187 13.539c-0.50219-0.048534-0.78071-0.24682-0.85141-0.60616-0.10929-0.55549 0.31406-2.1475 0.99851-3.755 1.1532-2.7083 2.706-5.0658 3.727-5.6584 0.23963-0.13907 0.53536-0.18045 0.77344-0.10821 0.5133 0.15574 1.1586 0.77542 1.8415 1.7682 1.5502 2.2539 2.8141 5.5806 2.9314 7.7151 0.01353 0.24646 0.0114 0.26486-0.03621 0.31247-0.05782 0.05782-0.09584 0.06313-0.15107 0.02112-0.02131-0.01621-0.20229-0.33724-0.40218-0.71338-1.2277-2.3103-2.4007-4.3234-3.1948-5.483-0.49216-0.71869-0.94154-1.2439-1.1511-1.3453l-0.10303-0.049878-0.12421 0.057264c-0.43828 0.20206-1.2132 1.2716-2.0114 2.7763-0.6358 1.1985-1.138 2.4693-1.1151 2.8218 0.0066 0.10092 0.013869 0.11333 0.077975 0.13212 0.089353 0.02618 0.49405 0.0057 0.80182-0.04065 0.94552-0.14228 2.7275-0.60417 4.7003-1.2183 0.43277-0.13473 0.45824-0.1399 0.51293-0.10406 0.08413 0.05513 0.07516 0.14414-0.02396 0.23762-0.1848 0.17429-1.0844 0.74733-1.8877 1.2024-1.7363 0.98373-3.2716 1.6461-4.5676 1.9707-0.3822 0.09571-0.41791 0.09894-0.74505 0.06732z" fill="#2e3440" filter="url(#filter926)" opacity=".5" stroke-width=".023583"/><path d="m4.187 13.539c-0.50219-0.048534-0.78071-0.24682-0.85141-0.60616-0.10929-0.55549 0.31406-2.1475 0.99851-3.755 1.1532-2.7083 2.706-5.0658 3.727-5.6584 0.23963-0.13907 0.53536-0.18045 0.77344-0.10821 0.5133 0.15574 1.1586 0.77542 1.8415 1.7682 1.5502 2.2539 2.8141 5.5806 2.9314 7.7151 0.01353 0.24646 0.0114 0.26486-0.03621 0.31247-0.05782 0.05782-0.09584 0.06313-0.15107 0.02112-0.02131-0.01621-0.20229-0.33724-0.40218-0.71338-1.2277-2.3103-2.4007-4.3234-3.1948-5.483-0.49216-0.71869-0.94154-1.2439-1.1511-1.3453l-0.10303-0.049878-0.12421 0.057264c-0.43828 0.20206-1.2132 1.2716-2.0114 2.7763-0.6358 1.1985-1.138 2.4693-1.1151 2.8218 0.0066 0.10092 0.013869 0.11333 0.077975 0.13212 0.089353 0.02618 0.49405 0.0057 0.80182-0.04065 0.94552-0.14228 2.7275-0.60417 4.7003-1.2183 0.43277-0.13473 0.45824-0.1399 0.51293-0.10406 0.08413 0.05513 0.07516 0.14414-0.02396 0.23762-0.1848 0.17429-1.0844 0.74733-1.8877 1.2024-1.7363 0.98373-3.2716 1.6461-4.5676 1.9707-0.3822 0.09571-0.41791 0.09894-0.74505 0.06732z" fill="#eceff4" stroke-width=".023583"/></svg>
